material/.icons/material/currency-bdt.svg

<svg xmlns="http://www.w3.org/2000/svg" viewBox="0 0 24 24"><path d="M18.09 10.5V9h-8.5V4.5A1.5 1.5 0 008.09 3a1.5 1.5 0 00-1.5 1.5A1.5 1.5 0 008.09 6v3h-3v1.5h3v6.2c0 2.36 1.91 4.27 4.25 4.3 2.34-.04 4.2-1.96 4.16-4.3 0-1.59-.75-3.09-2-4.08a4.08 4.08 0 00-.7-.47c-.22-.1-.46-.15-.7-.15-.71 0-1.36.39-1.71 1-.19.3-.29.65-.29 1 .01 1.1.9 2 2.01 2 .62 0 1.2-.31 1.58-.8.21.47.31.98.31 1.5.04 1.5-1.14 2.75-2.66 2.8-1.53 0-2.76-1.27-2.75-2.8v-6.2h8.5z"/></svg>

<?xml version="1.0" encoding="UTF-8"?><!DOCTYPE svg PUBLIC "-//W3C//DTD SVG 1.1//EN" "http://www.w3.org/Graphics/SVG/1.1/DTD/svg11.dtd"><svg xmlns="http://www.w3.org/2000/svg" xmlns:xlink="http://www.w3.org/1999/xlink" version="1.1" id="mdi-currency-bdt" width="24" height="24" viewBox="0 0 24 24"><path d="M18.09,10.5V9H9.59V4.5A1.5,1.5 0 0,0 8.09,3A1.5,1.5 0 0,0 6.59,4.5A1.5,1.5 0 0,0 8.09,6V9H5.09V10.5H8.09V16.7C8.09,19.06 10,20.97 12.34,21C14.68,20.96 16.54,19.04 16.5,16.7C16.5,15.11 15.75,13.61 14.5,12.62C14.28,12.44 14.05,12.28 13.8,12.15C13.58,12.05 13.34,12 13.1,12C12.39,12 11.74,12.39 11.39,13C11.2,13.3 11.1,13.65 11.1,14C11.11,15.1 12,16 13.11,16C13.73,16 14.31,15.69 14.69,15.2C14.9,15.67 15,16.18 15,16.7C15.04,18.2 13.86,19.45 12.34,19.5C10.81,19.5 9.58,18.23 9.59,16.7V10.5H18.09Z" /></svg>
